docs/assets/images/svg/icon-facebook.svg

<svg width="28" height="28" viewBox="0 0 28 28" fill="inherit" xmlns="http://www.w3.org/2000/svg">
<path d="M14.7897 26V15.0533H18.3263L18.8568 10.7859H14.7897V8.06176C14.7897 6.82664 15.1186 5.98492 16.8259 5.98492L19 5.98399V2.16708C18.624 2.11633 17.3334 2 15.8313 2C12.6947 2 10.5473 3.98836 10.5473 7.63912V10.7859H7V15.0533H10.5473V26H14.7897Z"/>
</svg>

<svg width="28" height="28" fill="inherit" xmlns="http://www.w3.org/2000/svg"><path d="M14.79 26V15.053h3.536l.53-4.267H14.79V8.062c0-1.235.329-2.077 2.036-2.077L19 5.984V2.167C18.624 2.117 17.333 2 15.831 2c-3.136 0-5.284 1.988-5.284 5.64v3.146H7v4.267h3.547V26h4.243z"/></svg>
